symbolic/16x16/panel/si-syncthing-3.svg

<svg xmlns="http://www.w3.org/2000/svg" width="16" height="16" version="1.1">
 <defs>
  <style id="current-color-scheme" type="text/css">
   .ColorScheme-Text { color:#323a41; } .ColorScheme-Highlight { color:#4285f4; } .ColorScheme-NeutralText { color:#ff9800; } .ColorScheme-PositiveText { color:#4caf50; } .ColorScheme-NegativeText { color:#f44336; }
  </style>
 </defs>
 <path style="fill:currentColor" class="ColorScheme-Text" d="M 14.062178,4.5 A 7,7 0 0 0 4.5000001,1.9378222 7,7 0 0 0 1.9378222,11.5 7,7 0 0 0 11.5,14.062178 7,7 0 0 0 14.062178,4.5 Z m -1.732051,1 A 5,5 0 0 1 11.271075,11.778949 1.5,1.5 0 0 1 10.566987,13.446152 1.5,1.5 0 0 1 8.5603951,12.962819 5,5 0 0 1 5.0298918,12.019683 1.5,1.5 0 0 1 3.0538479,11.433012 1.5,1.5 0 0 1 3.2793834,9.6361514 5,5 0 0 1 5.5000001,3.669873 5,5 0 0 1 5.5754007,3.6285957 1.5,1.5 0 0 1 6.2990382,2.0538476 1.5,1.5 0 0 1 8.3480763,2.6028857 1.5,1.5 0 0 1 8.5130315,3.0331277 5,5 0 0 1 12.330127,5.5 Z M 11.464102,6 A 4,4 0 0 0 8.3905005,4.0240229 1.5,1.5 0 0 1 7.7990382,4.6519238 1.5,1.5 0 0 1 7.74465,4.6788143 L 8.1093875,7.2129021 A 1.5,1.5 0 0 1 9.1160255,7.9330127 1.5,1.5 0 0 1 8.9560548,9.6559353 L 9.5439455,10.674192 A 1.5,1.5 0 0 1 10.703608,10.940599 4,4 0 0 0 11.464102,6 Z M 6.7556616,4.8213049 A 1.5,1.5 0 0 1 6.0797602,4.4943594 4,4 0 0 0 6.0000001,4.5358984 4,4 0 0 0 4.185639,9.1941145 1.5,1.5 0 0 1 5.325808,9.5439455 L 6.3440648,8.9560547 A 1.5,1.5 0 0 1 7.0669874,7.3839746 1.5,1.5 0 0 1 7.1213756,7.357084 L 6.7556616,4.8213049 Z M 8.0900293,10.155935 A 1.5,1.5 0 0 1 6.8440649,9.8220798 L 5.825808,10.409971 a 1.5,1.5 0 0 1 -0.1024619,0.87331 4,4 0 0 0 2.6039856,0.697736 1.5,1.5 0 0 1 0.3505918,-0.806823 L 8.0900293,10.155935 Z"/>
</svg>

<svg xmlns="http://www.w3.org/2000/svg" width="16" height="16"><defs><style id="current-color-scheme" type="text/css"></style></defs><path style="fill:currentColor;color:#323a41" d="M14.062 4.5A7 7 0 0 0 4.5 1.938 7 7 0 0 0 1.938 11.5a7 7 0 0 0 9.562 2.562A7 7 0 0 0 14.062 4.5zm-1.732 1a5 5 0 0 1-1.059 6.279 1.5 1.5 0 0 1-.704 1.667 1.5 1.5 0 0 1-2.007-.483 5 5 0 0 1-3.53-.943 1.5 1.5 0 0 1-1.976-.587 1.5 1.5 0 0 1 .225-1.797A5 5 0 0 1 5.5 3.67a5 5 0 0 1 .075-.041A1.5 1.5 0 0 1 6.3 2.054a1.5 1.5 0 0 1 2.05.549 1.5 1.5 0 0 1 .164.43A5 5 0 0 1 12.33 5.5zm-.866.5a4 4 0 0 0-3.073-1.976 1.5 1.5 0 0 1-.592.628 1.5 1.5 0 0 1-.054.027l.364 2.534a1.5 1.5 0 0 1 1.007.72 1.5 1.5 0 0 1-.16 1.723l.588 1.018a1.5 1.5 0 0 1 1.16.267A4 4 0 0 0 11.464 6zM6.756 4.821a1.5 1.5 0 0 1-.676-.327 4 4 0 0 0-.08.042 4 4 0 0 0-1.814 4.658 1.5 1.5 0 0 1 1.14.35l1.018-.588a1.5 1.5 0 0 1 .723-1.572 1.5 1.5 0 0 1 .054-.027l-.365-2.536zm1.334 5.335a1.5 1.5 0 0 1-1.246-.334l-1.018.588a1.5 1.5 0 0 1-.103.873 4 4 0 0 0 2.604.698 1.5 1.5 0 0 1 .35-.807l-.587-1.018z"/></svg>
